;FLAVOR:Marlin
;TIME:4893
;Filament used: 4.36591m
;Layer height: 0.15
;MINX:74.674
;MINY:88.962
;MINZ:0.3
;MAXX:179.326
;MAXY:165.038
;MAXZ:25.05
;Generated with Cura_SteamEngine 5.0.0
M140 S60
M105
M190 S60
M104 S200
M105
M109 S200
M82 ;absolute extrusion mode
;Basic settings: Layer height: 0.15 Walls: 0.8 Fill: 10
G21 ;metric values
G90 ;absolute positioning
M82 ;set extruder to absolute mode
M107 ;start with the fan off
G28 X0 Y0 ;move X/Y to min endstops
G28 Z0 ;move Z to min endstops
M205 X8 ;X/Y Jerk settings
G1 Z15.0 F120 ;move the platform down 15mm
G92 E0 ;zero the extruded length
G1 F200 E7 ;extrude 3mm of feed stock
G92 E0 ;zero the extruded length again
G1 F120
;Put printing message on LCD screen
M117 Rigibot Printing...
G92 E0
G92 E0
G1 F1500 E-6.5
;LAYER_COUNT:166
;LAYER:0
M107
G0 F3600 X77.696 Y90.596 Z0.3
G0 X74.674 Y96.762
;TYPE:SKIRT
G1 F1500 E0
G1 F1800 X74.714 Y95.973 E0.03941
G1 X74.833 Y95.193 E0.07878
G1 X75.031 Y94.428 E0.1182
G1 X75.305 Y93.688 E0.15757
G1 X75.653 Y92.979 E0.19697
G1 X76.071 Y92.308 E0.23641
G1 X76.554 Y91.684 E0.27578
G1 X77.097 Y91.111 E0.31517
G1 X77.696 Y90.596 E0.35458
G1 X78.344 Y90.145 E0.39397
G1 X79.035 Y89.761 E0.43341
G1 X79.76 Y89.449 E0.47278
G1 X80.513 Y89.212 E0.51217
G1 X81.287 Y89.053 E0.55159
G1 X82.072 Y88.972 E0.59096
G1 X82.474 Y88.962 E0.61102
G1 X171.526 Y88.962 E5.05384
G1 X172.315 Y89.002 E5.09326
G1 X173.095 Y89.121 E5.13262
G1 X173.86 Y89.319 E5.17205
G1 X174.6 Y89.593 E5.21141
G1 X175.309 Y89.941 E5.25082
G1 X175.98 Y90.359 E5.29026
G1 X176.604 Y90.842 E5.32963
G1 X177.177 Y91.385 E5.36901
G1 X177.692 Y91.984 E5.40842
G1 X178.143 Y92.632 E5.44781
G1 X178.527 Y93.323 E5.48725
G1 X178.839 Y94.048 E5.52663
G1 X179.076 Y94.801 E5.56601
G1 X179.235 Y95.575 E5.60543
G1 X179.316 Y96.36 E5.6448
G1 X179.326 Y96.762 E5.66487
G1 X179.326 Y157.238 E8.68203
G1 X179.286 Y158.027 E8.72144
G1 X179.167 Y158.807 E8.7608
G1 X178.969 Y159.572 E8.80023
G1 X178.695 Y160.312 E8.8396
G1 X178.347 Y161.021 E8.879
G1 X177.929 Y161.692 E8.91844
G1 X177.446 Y162.316 E8.95781
G1 X176.903 Y162.889 E8.99719
G1 X176.304 Y163.404 E9.0366
G1 X175.656 Y163.855 E9.07599
G1 X174.965 Y164.239 E9.11543
G1 X174.24 Y164.551 E9.15481
G1 X173.487 Y164.788 E9.19419
G1 X172.713 Y164.947 E9.23361
G1 X171.928 Y165.028 E9.27299
G1 X171.526 Y165.038 E9.29305
G1 X82.474 Y165.038 E13.73587
G1 X81.685 Y164.998 E13.77528
G1 X80.905 Y164.879 E13.81465
G1 X80.14 Y164.681 E13.85407
G1 X79.4 Y164.407 E13.89344
G1 X78.691 Y164.059 E13.93284
G1 X78.02 Y163.641 E13.97228
G1 X77.396 Y163.158 E14.01165
G1 X76.823 Y162.615 E14.05104
G1 X76.308 Y162.016 E14.09045
G1 X75.857 Y161.368 E14.12984
G1 X75.473 Y160.677 E14.16928
G1 X75.161 Y159.952 E14.20865
G1 X74.924 Y159.199 E14.24804
G1 X74.765 Y158.425 E14.28746
G1 X74.684 Y157.64 E14.32683
G1 X74.674 Y157.238 E14.34689
G1 X74.674 Y96.762 E17.36405
G0 F3600 X75.074 Y96.762
G1 F1800 X75.114 Y95.994 E17.40242
G1 X75.233 Y95.234 E17.4408
G1 X75.431 Y94.491 E17.47916
G1 X75.705 Y93.772 E17.51755
G1 X76.052 Y93.086 E17.5559
G1 X76.468 Y92.439 E17.59428
G1 X76.949 Y91.839 E17.63264
G1 X77.49 Y91.292 E17.67103
G1 X78.085 Y90.804 E17.70942
G1 X78.727 Y90.381 E17.74777
G1 X79.41 Y90.026 E17.78618
G1 X80.125 Y89.745 E17.8245
G1 X80.867 Y89.539 E17.86292
G1 X81.625 Y89.411 E17.90128
G1 X82.474 Y89.362 E17.9437
G1 X171.526 Y89.362 E22.38653
G1 X172.294 Y89.402 E22.42489
G1 X173.054 Y89.521 E22.46327
G1 X173.797 Y89.719 E22.50163
G1 X174.516 Y89.993 E22.54002
G1 X175.202 Y90.34 E22.57838
G1 X175.849 Y90.756 E22.61675
G1 X176.449 Y91.237 E22.65512
G1 X176.996 Y91.778 E22.6935
G1 X177.484 Y92.373 E22.73189
G1 X177.907 Y93.015 E22.77025
G1 X178.262 Y93.698 E22.80865
G1 X178.543 Y94.413 E22.84698
G1 X178.749 Y95.155 E22.8854
G1 X178.877 Y95.913 E22.92375
G1 X178.926 Y96.762 E22.96618
G1 X178.926 Y157.238 E25.98334
G1 X178.886 Y158.006 E26.0217
G1 X178.767 Y158.766 E26.06008
G1 X178.569 Y159.509 E26.09844
G1 X178.295 Y160.228 E26.13683
G1 X177.948 Y160.914 E26.17519
G1 X177.532 Y161.561 E26.21356
G1 X177.051 Y162.161 E26.25193
G1 X176.51 Y162.708 E26.29031
G1 X175.915 Y163.196 E26.3287
G1 X175.273 Y163.619 E26.36706
G1 X174.59 Y163.974 E26.40546
G1 X173.875 Y164.255 E26.44379
G1 X173.133 Y164.461 E26.48221
G1 X172.375 Y164.589 E26.52056
G1 X171.526 Y164.638 E26.56299
G1 X82.474 Y164.638 E31.00581
G1 X81.706 Y164.598 E31.04418
G1 X80.946 Y164.479 E31.08255
G1 X80.203 Y164.281 E31.12092
G1 X79.484 Y164.007 E31.1593
G1 X78.798 Y163.66 E31.19766
G1 X78.151 Y163.244 E31.23603
G1 X77.551 Y162.763 E31.2744
G1 X77.004 Y162.222 E31.31278
G1 X76.516 Y161.627 E31.35117
G1 X76.093 Y160.985 E31.38953
G1 X75.738 Y160.302 E31.42793
G1 X75.457 Y159.587 E31.46626
G1 X75.251 Y158.845 E31.50468
G1 X75.123 Y158.087 E31.54303
G1 X75.074 Y157.238 E31.58546
G1 X75.074 Y96.762 E34.60262
G0 F3600 X75.474 Y96.762
G1 F1800 X75.514 Y96.015 E34.63994
G1 X75.633 Y95.277 E34.67724
G1 X75.831 Y94.555 E34.71459
G1 X76.104 Y93.859 E34.75189
G1 X76.451 Y93.196 E34.78922
G1 X76.866 Y92.573 E34.82656
G1 X77.345 Y91.999 E34.86386
G1 X77.882 Y91.478 E34.90119
G1 X78.472 Y91.019 E34.93849
G1 X79.108 Y90.624 E34.97584
G1 X79.782 Y90.3 E35.01315
G1 X80.487 Y90.05 E35.05046
G1 X81.215 Y89.876 E35.08781
G1 X81.957 Y89.781 E35.12513
G1 X82.474 Y89.762 E35.15094
G1 X171.526 Y89.762 E39.59376
G1 X172.273 Y89.802 E39.63108
G1 X173.011 Y89.921 E39.66838
G1 X173.733 Y90.119 E39.70573
G1 X174.429 Y90.392 E39.74303
G1 X175.092 Y90.739 E39.78036
G1 X175.715 Y91.154 E39.81771
G1 X176.289 Y91.633 E39.85501
G1 X176.81 Y92.17 E39.89233
G1 X177.269 Y92.76 E39.92963
G1 X177.664 Y93.396 E39.96698
G1 X177.988 Y94.07 E40.00429
G1 X178.238 Y94.775 E40.04161
G1 X178.412 Y95.503 E40.07895
G1 X178.507 Y96.245 E40.11627
G1 X178.526 Y96.762 E40.14208
G1 X178.526 Y157.238 E43.15924
G1 X178.486 Y157.985 E43.19656
G1 X178.367 Y158.723 E43.23386
G1 X178.169 Y159.445 E43.27121
G1 X177.896 Y160.141 E43.30851
G1 X177.549 Y160.804 E43.34584
G1 X177.134 Y161.427 E43.38319
G1 X176.655 Y162.001 E43.42049
G1 X176.118 Y162.522 E43.45781
G1 X175.528 Y162.981 E43.49511
G1 X174.892 Y163.376 E43.53246
G1 X174.218 Y163.7 E43.56977
G1 X173.513 Y163.95 E43.60709
G1 X172.785 Y164.124 E43.64443
G1 X172.043 Y164.219 E43.68175
G1 X171.526 Y164.238 E43.70756
G1 X82.474 Y164.238 E48.15038
G1 X81.727 Y164.198 E48.18771
G1 X80.989 Y164.079 E48.225
G1 X80.267 Y163.881 E48.26235
G1 X79.571 Y163.608 E48.29965
G1 X78.908 Y163.261 E48.33698
G1 X78.285 Y162.846 E48.37433
G1 X77.711 Y162.367 E48.41163
G1 X77.19 Y161.83 E48.44896
G1 X76.731 Y161.24 E48.48625
G1 X76.336 Y160.604 E48.5236
G1 X76.012 Y159.93 E48.56091
G1 X75.762 Y159.225 E48.59823
G1 X75.588 Y158.497 E48.63557
G1 X75.493 Y157.755 E48.67289
G1 X75.474 Y157.238 E48.6987
G1 X75.474 Y96.762 E51.71586
G0 F3600 X75.874 Y96.762
G1 F1800 X75.914 Y96.037 E51.75209
G1 X76.033 Y95.32 E51.78835
G1 X76.231 Y94.621 E51.8246
G1 X76.504 Y93.948 E51.86083
G1 X76.849 Y93.309 E51.89706
G1 X77.263 Y92.712 E51.9333
G1 X77.739 Y92.164 E51.96952
G1 X78.273 Y91.671 E52.00578
G1 X78.858 Y91.241 E52.042
G1 X79.487 Y90.877 E52.07825
G1 X80.152 Y90.584 E52.11451
G1 X80.845 Y90.366 E52.15075
G1 X81.557 Y90.226 E52.18696
G1 X82.474 Y90.162 E52.23282
G1 X171.526 Y90.162 E56.67564
G1 X172.251 Y90.202 E56.71186
G1 X172.968 Y90.321 E56.74812
G1 X173.667 Y90.519 E56.78437
G1 X174.34 Y90.792 E56.8206
G1 X174.979 Y91.137 E56.85683
G1 X175.576 Y91.551 E56.89308
G1 X176.124 Y92.027 E56.92929
G1 X176.617 Y92.561 E56.96555
G1 X177.047 Y93.146 E57.00177
G1 X177.411 Y93.775 E57.03803
G1 X177.704 Y94.44 E57.07428
G1 X177.922 Y95.133 E57.11053
G1 X178.062 Y95.845 E57.14673
G1 X178.126 Y96.762 E57.19259
G1 X178.126 Y157.238 E60.20975
G1 X178.086 Y157.963 E60.24598
G1 X177.967 Y158.68 E60.28224
G1 X177.769 Y159.379 E60.31848
G1 X177.496 Y160.052 E60.35472
G1 X177.151 Y160.691 E60.39095
G1 X176.737 Y161.288 E60.42719
G1 X176.261 Y161.836 E60.4634
G1 X175.727 Y162.329 E60.49966
G1 X175.142 Y162.759 E60.53588
G1 X174.513 Y163.123 E60.57214
G1 X173.848 Y163.416 E60.6084
G1 X173.155 Y163.634 E60.64464
G1 X172.443 Y163.774 E60.68084
G1 X171.526 Y163.838 E60.7267
G1 X82.474 Y163.838 E65.16953
G1 X81.749 Y163.798 E65.20575
G1 X81.032 Y163.679 E65.24201
G1 X80.333 Y163.481 E65.27826
G1 X79.66 Y163.208 E65.31449
G1 X79.021 Y162.863 E65.35072
G1 X78.424 Y162.449 E65.38697
G1 X77.876 Y161.973 E65.42318
G1 X77.383 Y161.439 E65.45944
G1 X76.953 Y160.854 E65.49566
G1 X76.589 Y160.225 E65.53192
G1 X76.296 Y159.56 E65.56817
G1 X76.078 Y158.867 E65.60442
G1 X75.938 Y158.155 E65.64062
G1 X75.874 Y157.238 E65.68648
G1 X75.874 Y96.762 E68.70364
G0 F3600 X76.274 Y96.762
G1 F1800 X76.314 Y96.059 E68.73877
G1 X76.433 Y95.365 E68.7739
G1 X76.631 Y94.69 E68.80899
G1 X76.903 Y94.041 E68.8441
G1 X77.248 Y93.427 E68.87924
G1 X77.659 Y92.856 E68.91434
G1 X78.133 Y92.335 E68.94948
G1 X78.663 Y91.871 E68.98462
G1 X79.242 Y91.471 E69.01973
G1 X79.863 Y91.139 E69.05486
G1 X80.517 Y90.879 E69.08997
G1 X81.197 Y90.695 E69.12512
G1 X81.893 Y90.589 E69.16024
G1 X82.474 Y90.562 E69.18926
G1 X171.526 Y90.562 E73.63208
G1 X172.229 Y90.602 E73.66721
G1 X172.923 Y90.721 E73.70234
G1 X173.598 Y90.919 E73.73743
G1 X174.247 Y91.191 E73.77254
G1 X174.861 Y91.536 E73.80768
G1 X175.432 Y91.947 E73.84278
G1 X175.953 Y92.421 E73.87792
G1 X176.417 Y92.951 E73.91306
G1 X176.817 Y93.53 E73.94817
G1 X177.149 Y94.151 E73.9833
G1 X177.409 Y94.805 E74.01842
G1 X177.593 Y95.485 E74.05356
G1 X177.699 Y96.181 E74.08868
G1 X177.726 Y96.762 E74.1177
G1 X177.726 Y157.238 E77.13486
G1 X177.686 Y157.941 E77.16999
G1 X177.567 Y158.635 E77.20512
G1 X177.369 Y159.31 E77.24022
G1 X177.097 Y159.959 E77.27532
G1 X176.752 Y160.573 E77.31046
G1 X176.341 Y161.144 E77.34556
G1 X175.867 Y161.665 E77.3807
G1 X175.337 Y162.129 E77.41584
G1 X174.758 Y162.529 E77.45095
G1 X174.137 Y162.861 E77.48608
G1 X173.483 Y163.121 E77.5212
G1 X172.803 Y163.305 E77.55634
G1 X172.107 Y163.411 E77.59147
G1 X171.526 Y163.438 E77.62048
G1 X82.474 Y163.438 E82.06331
G1 X81.771 Y163.398 E82.09843
G1 X81.077 Y163.279 E82.13356
G1 X80.402 Y163.081 E82.16866
G1 X79.753 Y162.809 E82.20377
G1 X79.139 Y162.464 E82.2389
G1 X78.568 Y162.053 E82.274
G1 X78.047 Y161.579 E82.30914
G1 X77.583 Y161.049 E82.34429
G1 X77.183 Y160.47 E82.3794
G1 X76.851 Y159.849 E82.41453
G1 X76.591 Y159.195 E82.44964
G1 X76.407 Y158.515 E82.48478
G1 X76.301 Y157.819 E82.51991
G1 X76.274 Y157.238 E82.54893
G1 X76.274 Y96.762 E85.56609
G0 F3600 X76.674 Y96.762
G1 F1800 X76.714 Y96.082 E85.60007
G1 X76.833 Y95.412 E85.63402
G1 X77.03 Y94.76 E85.668
G1 X77.302 Y94.136 E85.70196
G1 X77.646 Y93.548 E85.73595
G1 X78.056 Y93.004 E85.76993
G1 X78.527 Y92.513 E85.80388
G1 X79.052 Y92.079 E85.83786
G1 X79.624 Y91.71 E85.87182
G1 X80.236 Y91.411 E85.9058
G1 X80.878 Y91.186 E85.93974
G1 X81.543 Y91.037 E85.97374
G1 X82.474 Y90.962 E86.02034
G1 X171.526 Y90.962 E90.46316
G1 X172.206 Y91.002 E90.49715
G1 X172.876 Y91.121 E90.5311
G1 X173.528 Y91.318 E90.56508
G1 X174.152 Y91.59 E90.59904
G1 X174.74 Y91.934 E90.63302
G1 X175.284 Y92.344 E90.66701
G1 X175.775 Y92.815 E90.70095
G1 X176.209 Y93.34 E90.73494
G1 X176.578 Y93.912 E90.7689
G1 X176.877 Y94.524 E90.80288
G1 X177.102 Y95.166 E90.83682
G1 X177.251 Y95.831 E90.87082
G1 X177.326 Y96.762 E90.91742
G1 X177.326 Y157.238 E93.93458
G1 X177.286 Y157.918 E93.96856
G1 X177.167 Y158.588 E94.00251
G1 X176.97 Y159.24 E94.03649
G1 X176.698 Y159.864 E94.07045
G1 X176.354 Y160.452 E94.10444
G1 X175.944 Y160.996 E94.13842
G1 X175.473 Y161.487 E94.17237
G1 X174.948 Y161.921 E94.20635
G1 X174.376 Y162.29 E94.24031
G1 X173.764 Y162.589 E94.27429
G1 X173.122 Y162.814 E94.30823
G1 X172.457 Y162.963 E94.34223
G1 X171.526 Y163.038 E94.38883
G1 X82.474 Y163.038 E98.83165
G1 X81.794 Y162.998 E98.86564
G1 X81.124 Y162.879 E98.89959
G1 X80.472 Y162.682 E98.93357
G1 X79.848 Y162.41 E98.96753
G1 X79.26 Y162.066 E99.00152
G1 X78.716 Y161.656 E99.0355
G1 X78.225 Y161.185 E99.06944
G1 X77.791 Y160.66 E99.10343
G1 X77.422 Y160.088 E99.13739
G1 X77.123 Y159.476 E99.17137
G1 X76.898 Y158.834 E99.20531
G1 X76.749 Y158.169 E99.23931
G1 X76.674 Y157.238 E99.28591
G1 X76.674 Y96.762 E102.30307
G0 F3600 X77.074 Y96.762
G1 F1800 X77.114 Y96.106 E102.33586
G1 X77.233 Y95.46 E102.36863
G1 X77.43 Y94.833 E102.40142
G1 X77.702 Y94.235 E102.43419
G1 X78.044 Y93.674 E102.46697
G1 X78.452 Y93.159 E102.49975
G1 X78.919 Y92.697 E102.53252
G1 X79.439 Y92.296 E102.56528
G1 X80.003 Y91.96 E102.59804
G1 X80.605 Y91.696 E102.63083
G1 X81.234 Y91.506 E102.66361
G1 X81.881 Y91.395 E102.69636
G1 X82.474 Y91.362 E102.726
G1 X171.526 Y91.362 E107.16882
G1 X172.182 Y91.402 E107.20161
G1 X172.828 Y91.521 E107.23438
G1 X173.455 Y91.718 E107.26717
G1 X174.053 Y91.99 E107.29994
G1 X174.614 Y92.332 E107.33272
G1 X175.129 Y92.74 E107.3655
G1 X175.591 Y93.207 E107.39827
G1 X175.992 Y93.727 E107.43104
G1 X176.328 Y94.291 E107.46379
G1 X176.592 Y94.893 E107.49658
G1 X176.782 Y95.522 E107.52936
G1 X176.893 Y96.169 E107.56211
G1 X176.926 Y96.762 E107.59175
G1 X176.926 Y157.238 E110.60891
G1 X176.886 Y157.894 E110.64169
G1 X176.767 Y158.54 E110.67447
G1 X176.57 Y159.167 E110.70725
G1 X176.298 Y159.765 E110.74003
G1 X175.956 Y160.326 E110.77281
G1 X175.548 Y160.841 E110.80559
G1 X175.081 Y161.303 E110.83836
G1 X174.561 Y161.704 E110.87112
G1 X173.997 Y162.04 E110.90388
G1 X173.395 Y162.304 E110.93667
G1 X172.766 Y162.494 E110.96945
G1 X172.119 Y162.605 E111.0022
G1 X171.526 Y162.638 E111.03183
G1 X82.474 Y162.638 E115.47466
G1 X81.818 Y162.598 E115.50744
G1 X81.172 Y162.479 E115.54022
G1 X80.545 Y162.282 E115.573
G1 X79.947 Y162.01 E115.60578
G1 X79.386 Y161.668 E115.63856
G1 X78.871 Y161.26 E115.67134
G1 X78.409 Y160.793 E115.70411
G1 X78.008 Y160.273 E115.73687
G1 X77.672 Y159.709 E115.76963
G1 X77.408 Y159.107 E115.80242
G1 X77.218 Y158.478 E115.8352
G1 X77.107 Y157.831 E115.86795
G1 X77.074 Y157.238 E115.89758
G1 X77.074 Y96.762 E118.91474
G0 F3600 X77.474 Y96.762
G1 F1800 X77.514 Y96.131 E118.94629
G1 X77.633 Y95.51 E118.97783
G1 X77.83 Y94.91 E119.00934
G1 X78.101 Y94.338 E119.04092
G1 X78.441 Y93.806 E119.07242
G1 X78.847 Y93.321 E119.10397
G1 X79.31 Y92.891 E119.1355
G1 X79.824 Y92.522 E119.16706
G1 X80.38 Y92.222 E119.19858
G1 X80.969 Y91.994 E119.23009
G1 X81.583 Y91.842 E119.26165
G1 X82.474 Y91.762 E119.30628
G1 X171.526 Y91.762 E123.7491
G1 X172.157 Y91.802 E123.78065
G1 X172.778 Y91.921 E123.81219
G1 X173.378 Y92.118 E123.8437
G1 X173.95 Y92.389 E123.87528
G1 X174.482 Y92.729 E123.90678
G1 X174.967 Y93.135 E123.93833
G1 X175.397 Y93.598 E123.96986
G1 X175.766 Y94.112 E124.00142
G1 X176.066 Y94.668 E124.03294
G1 X176.294 Y95.257 E124.06445
G1 X176.446 Y95.871 E124.09601
G1 X176.526 Y96.762 E124.14064
G1 X176.526 Y157.238 E127.1578
G1 X176.486 Y157.869 E127.18935
G1 X176.367 Y158.49 E127.22089
G1 X176.17 Y159.09 E127.2524
G1 X175.899 Y159.662 E127.28398
G1 X175.559 Y160.194 E127.31547
G1 X175.153 Y160.679 E127.34703
G1 X174.69 Y161.109 E127.37855
G1 X174.176 Y161.478 E127.41012
G1 X173.62 Y161.778 E127.44164
G1 X173.031 Y162.006 E127.47315
G1 X172.417 Y162.158 E127.50471
G1 X171.526 Y162.238 E127.54934
G1 X82.474 Y162.238 E131.99216
G1 X81.843 Y162.198 E132.02371
G1 X81.222 Y162.079 E132.05525
G1 X80.622 Y161.882 E132.08676
G1 X80.05 Y161.611 E132.11834
G1 X79.518 Y161.271 E132.14983
G1 X79.033 Y160.865 E132.18139
G1 X78.603 Y160.402 E132.21291
G1 X78.234 Y159.888 E132.24448
G1 X77.934 Y159.332 E132.276
G1 X77.706 Y158.743 E132.30751
G1 X77.554 Y158.129 E132.33907
G1 X77.474 Y157.238 E132.3837
G1 X77.474 Y96.762 E135.40086
G0 F3600 X77.874 Y96.762
G1 F1800 X77.914 Y96.157 E135.43111
G1 X78.033 Y95.563 E135.46133
G1 X78.229 Y94.989 E135.49159
G1 X78.5 Y94.446 E135.52187
G1 X78.839 Y93.943 E135.55213
G1 X79.241 Y93.49 E135.58235
G1 X79.699 Y93.093 E135.61259
G1 X80.206 Y92.76 E135.64285
G1 X80.752 Y92.496 E135.67311
G1 X81.328 Y92.307 E135.70335
G1 X81.924 Y92.195 E135.73361
G1 X82.474 Y92.162 E135.7611
G1 X171.526 Y92.162 E140.20392
G1 X172.131 Y92.202 E140.23417
G1 X172.725 Y92.321 E140.26439
G1 X173.299 Y92.517 E140.29465
G1 X173.842 Y92.788 E140.32493
G1 X174.345 Y93.127 E140.35519
