;FLAVOR:Marlin
;TIME:1748
;Filament used: 1.37122m
;Layer height: 0.15
;MINX:76.424
;MINY:27.328
;MINZ:0.3
;MAXX:177.576
;MAXY:103.072
;MAXZ:7.05
;Generated with Cura_SteamEngine 5.0.0
M140 S60
M105
M190 S60
M104 S200
M105
M109 S200
M82 ;absolute extrusion mode
;Basic settings: Layer height: 0.15 Walls: 0.8 Fill: 10
G21 ;metric values
G90 ;absolute positioning
M82 ;set extruder to absolute mode
M107 ;start with the fan off
G28 X0 Y0 ;move X/Y to min endstops
G28 Z0 ;move Z to min endstops
M205 X8 ;X/Y Jerk settings
G1 Z15.0 F120 ;move the platform down 15mm
G92 E0 ;zero the extruded length
G1 F200 E7 ;extrude 3mm of feed stock
G92 E0 ;zero the extruded length again
G1 F120
;Put printing message on LCD screen
M117 Rigibot Printing...
G92 E0
G92 E0
G1 F1500 E-6.5
;LAYER_COUNT:46
;LAYER:0
M107
G0 F3600 X77.129 Y32.301 Z0.3
G0 X76.426 Y35.61
;TYPE:SKIRT
G1 F1500 E0
G1 F1800 X76.466 Y34.821 E0.03941
G1 X76.586 Y34.04 E0.07884
G1 X76.779 Y33.289 E0.11752
G1 X77.129 Y32.301 E0.16981
G1 X77.476 Y31.591 E0.20924
G1 X77.892 Y30.92 E0.24863
G1 X78.374 Y30.294 E0.28804
G1 X78.99 Y29.653 E0.3324
G1 X79.781 Y28.971 E0.3845
G1 X80.434 Y28.526 E0.42393
G1 X81.129 Y28.15 E0.46335
G1 X81.857 Y27.847 E0.50269
G1 X82.538 Y27.637 E0.53824
G1 X83.548 Y27.418 E0.5898
G1 X84.726 Y27.328 E0.64875
G1 X169.275 Y27.328 E4.86691
G1 X170.064 Y27.368 E4.90633
G1 X170.844 Y27.487 E4.94569
G1 X171.496 Y27.651 E4.97923
G1 X172.506 Y27.993 E5.03243
G1 X173.221 Y28.329 E5.07185
G1 X173.897 Y28.737 E5.11124
G1 X174.529 Y29.21 E5.15062
G1 X175.251 Y29.894 E5.20024
G1 X175.933 Y30.685 E5.25235
G1 X176.378 Y31.338 E5.29177
G1 X176.754 Y32.033 E5.33119
G1 X177.057 Y32.761 E5.37053
G1 X177.261 Y33.419 E5.4049
G1 X177.483 Y34.425 E5.4563
G1 X177.565 Y35.21 E5.49568
G1 X177.576 Y35.627 E5.51649
G1 X177.574 Y94.79 E8.46814
G1 X177.534 Y95.579 E8.50756
G1 X177.414 Y96.36 E8.54698
G1 X177.221 Y97.111 E8.58566
G1 X176.871 Y98.099 E8.63796
G1 X176.524 Y98.809 E8.67738
G1 X176.108 Y99.48 E8.71677
G1 X175.626 Y100.106 E8.75619
G1 X175.01 Y100.747 E8.80054
G1 X174.219 Y101.429 E8.85265
G1 X173.566 Y101.874 E8.89207
G1 X172.871 Y102.25 E8.93149
G1 X172.143 Y102.553 E8.97083
G1 X171.462 Y102.763 E9.00639
G1 X170.452 Y102.982 E9.05795
G1 X169.274 Y103.072 E9.11689
G1 X84.706 Y103.07 E13.336
G1 X83.917 Y103.03 E13.37542
G1 X83.137 Y102.91 E13.41479
G1 X82.385 Y102.717 E13.45352
G1 X81.397 Y102.367 E13.50582
G1 X80.687 Y102.02 E13.54524
G1 X80.016 Y101.604 E13.58463
G1 X79.39 Y101.122 E13.62405
G1 X78.749 Y100.506 E13.6684
G1 X78.067 Y99.715 E13.7205
G1 X77.622 Y99.062 E13.75993
G1 X77.246 Y98.367 E13.79935
G1 X76.943 Y97.639 E13.83869
G1 X76.739 Y96.981 E13.87306
G1 X76.517 Y95.975 E13.92446
G1 X76.435 Y95.19 E13.96383
G1 X76.424 Y94.773 E13.98465
G1 X76.426 Y35.61 E16.9363
G0 F3600 X76.826 Y35.61
G1 F1800 X76.866 Y34.842 E16.97467
G1 X76.986 Y34.082 E17.01305
G1 X77.161 Y33.408 E17.0478
G1 X77.505 Y32.439 E17.09909
G1 X77.845 Y31.749 E17.13747
G1 X78.255 Y31.099 E17.17581
G1 X78.731 Y30.494 E17.21422
G1 X79.262 Y29.945 E17.25232
G1 X80.039 Y29.278 E17.30341
G1 X80.676 Y28.847 E17.34178
G1 X81.355 Y28.486 E17.38015
G1 X82.068 Y28.197 E17.41853
G1 X82.638 Y28.024 E17.44825
G1 X83.628 Y27.81 E17.49878
G1 X84.726 Y27.728 E17.55371
G1 X169.275 Y27.728 E21.77188
G1 X170.043 Y27.768 E21.81025
G1 X170.803 Y27.887 E21.84863
G1 X171.382 Y28.034 E21.87843
G1 X172.373 Y28.37 E21.93063
G1 X173.067 Y28.701 E21.969
G1 X173.723 Y29.102 E22.00735
G1 X174.334 Y29.569 E22.04572
G1 X174.959 Y30.166 E22.08884
G1 X175.626 Y30.943 E22.13993
G1 X176.057 Y31.58 E22.1783
G1 X176.418 Y32.259 E22.21667
G1 X176.707 Y32.972 E22.25505
G1 X176.874 Y33.52 E22.28363
G1 X177.091 Y34.506 E22.334
G1 X177.176 Y35.627 E22.39009
G1 X177.174 Y94.79 E25.34174
G1 X177.134 Y95.558 E25.38011
G1 X177.014 Y96.318 E25.41849
G1 X176.839 Y96.992 E25.45324
G1 X176.495 Y97.961 E25.50454
G1 X176.155 Y98.651 E25.54291
G1 X175.745 Y99.301 E25.58125
G1 X175.269 Y99.906 E25.61966
G1 X174.738 Y100.455 E25.65776
G1 X173.961 Y101.122 E25.70885
G1 X173.324 Y101.553 E25.74722
G1 X172.645 Y101.914 E25.78559
G1 X171.932 Y102.203 E25.82397
G1 X171.362 Y102.376 E25.85369
G1 X170.372 Y102.59 E25.90422
G1 X169.274 Y102.672 E25.95915
G1 X84.706 Y102.67 E30.17827
G1 X83.938 Y102.63 E30.21664
G1 X83.178 Y102.511 E30.25501
G1 X82.504 Y102.335 E30.28977
G1 X81.535 Y101.991 E30.34107
G1 X80.845 Y101.651 E30.37944
G1 X80.195 Y101.241 E30.41779
G1 X79.59 Y100.765 E30.45619
G1 X79.041 Y100.234 E30.4943
G1 X78.374 Y99.457 E30.54538
G1 X77.943 Y98.82 E30.58376
G1 X77.582 Y98.141 E30.62212
G1 X77.293 Y97.428 E30.6605
G1 X77.126 Y96.88 E30.68909
G1 X76.909 Y95.894 E30.73945
G1 X76.824 Y94.773 E30.79554
G1 X76.826 Y35.61 E33.7472
G0 F3600 X77.226 Y35.61
G1 F1800 X77.266 Y34.863 E33.78452
G1 X77.385 Y34.124 E33.82186
G1 X77.543 Y33.527 E33.85267
G1 X77.881 Y32.578 E33.90293
G1 X78.214 Y31.909 E33.94021
G1 X78.618 Y31.279 E33.97755
G1 X79.086 Y30.696 E34.01485
G1 X79.535 Y30.238 E34.04685
G1 X80.296 Y29.585 E34.09688
G1 X80.918 Y29.169 E34.13421
G1 X81.58 Y28.822 E34.1715
G1 X82.277 Y28.548 E34.20886
G1 X82.974 Y28.351 E34.245
G1 X83.707 Y28.202 E34.28231
G1 X84.726 Y28.128 E34.33329
G1 X169.275 Y28.128 E38.55145
G1 X170.022 Y28.168 E38.58877
G1 X170.76 Y28.287 E38.62607
G1 X171.268 Y28.418 E38.65224
G1 X172.239 Y28.748 E38.70341
G1 X172.913 Y29.072 E38.74072
G1 X173.548 Y29.467 E38.77803
G1 X174.138 Y29.928 E38.81538
G1 X174.666 Y30.439 E38.85204
G1 X175.319 Y31.2 E38.90207
G1 X175.735 Y31.822 E38.9394
G1 X176.082 Y32.484 E38.97669
G1 X176.356 Y33.181 E39.01405
G1 X176.548 Y33.854 E39.04897
G1 X176.698 Y34.587 E39.0863
G1 X176.776 Y35.627 E39.13833
G1 X176.774 Y94.79 E42.08998
G1 X176.734 Y95.537 E42.1273
G1 X176.615 Y96.276 E42.16465
G1 X176.457 Y96.873 E42.19546
G1 X176.119 Y97.822 E42.24572
G1 X175.786 Y98.491 E42.283
G1 X175.382 Y99.121 E42.32034
G1 X174.914 Y99.704 E42.35764
G1 X174.465 Y100.162 E42.38963
G1 X173.704 Y100.815 E42.43966
G1 X173.082 Y101.231 E42.47699
G1 X172.42 Y101.578 E42.51428
G1 X171.723 Y101.852 E42.55165
G1 X171.026 Y102.049 E42.58778
G1 X170.293 Y102.198 E42.6251
G1 X169.274 Y102.272 E42.67607
G1 X84.706 Y102.27 E46.89519
G1 X83.959 Y102.23 E46.93251
G1 X83.22 Y102.111 E46.96985
G1 X82.623 Y101.953 E47.00066
G1 X81.674 Y101.615 E47.05092
G1 X81.005 Y101.282 E47.0882
G1 X80.375 Y100.878 E47.12554
G1 X79.792 Y100.41 E47.16284
G1 X79.334 Y99.961 E47.19484
G1 X78.681 Y99.2 E47.24487
G1 X78.265 Y98.578 E47.2822
G1 X77.918 Y97.916 E47.31949
G1 X77.644 Y97.219 E47.35685
G1 X77.452 Y96.546 E47.39177
G1 X77.302 Y95.813 E47.4291
G1 X77.224 Y94.773 E47.48113
G1 X77.226 Y35.61 E50.43278
G0 F3600 X77.626 Y35.61
G1 F1800 X77.666 Y34.885 E50.46901
G1 X77.785 Y34.168 E50.50527
G1 X77.925 Y33.646 E50.53223
G1 X78.256 Y32.718 E50.58139
G1 X78.583 Y32.07 E50.6176
G1 X78.98 Y31.461 E50.65387
G1 X79.441 Y30.9 E50.69009
G1 X79.807 Y30.531 E50.71602
G1 X80.552 Y29.892 E50.76499
G1 X81.158 Y29.492 E50.80122
G1 X81.804 Y29.16 E50.83745
G1 X82.483 Y28.902 E50.87369
G1 X83.074 Y28.738 E50.90429
G1 X83.787 Y28.595 E50.94057
G1 X84.726 Y28.528 E50.98754
G1 X169.275 Y28.528 E55.2057
G1 X170 Y28.568 E55.24193
G1 X170.717 Y28.687 E55.27819
G1 X171.42 Y28.88 E55.31456
G1 X172.104 Y29.125 E55.35081
G1 X172.757 Y29.443 E55.38704
G1 X173.371 Y29.832 E55.42331
G1 X173.938 Y30.285 E55.45951
G1 X174.373 Y30.711 E55.48989
G1 X175.012 Y31.456 E55.53886
G1 X175.412 Y32.062 E55.57508
G1 X175.744 Y32.708 E55.61132
G1 X176.1 Y33.722 E55.66493
G1 X176.306 Y34.667 E55.71319
G1 X176.376 Y35.627 E55.76121
G1 X176.374 Y94.79 E58.71286
G1 X176.334 Y95.515 E58.74909
G1 X176.215 Y96.232 E58.78535
G1 X176.075 Y96.754 E58.81231
G1 X175.744 Y97.682 E58.86147
G1 X175.417 Y98.33 E58.89768
G1 X175.02 Y98.939 E58.93395
G1 X174.559 Y99.5 E58.97017
G1 X174.193 Y99.869 E58.9961
G1 X173.448 Y100.508 E59.04507
G1 X172.842 Y100.908 E59.0813
G1 X172.196 Y101.24 E59.11753
G1 X171.517 Y101.498 E59.15377
G1 X170.926 Y101.662 E59.18437
G1 X170.213 Y101.805 E59.22065
G1 X169.274 Y101.872 E59.26762
G1 X84.706 Y101.87 E63.48673
G1 X83.981 Y101.83 E63.52296
G1 X83.264 Y101.711 E63.55922
G1 X82.742 Y101.571 E63.58618
G1 X81.814 Y101.24 E63.63533
G1 X81.166 Y100.913 E63.67155
G1 X80.557 Y100.516 E63.70782
G1 X79.996 Y100.055 E63.74404
G1 X79.627 Y99.689 E63.76997
G1 X78.988 Y98.944 E63.81894
G1 X78.588 Y98.338 E63.85516
G1 X78.256 Y97.692 E63.8914
G1 X77.9 Y96.678 E63.94502
G1 X77.694 Y95.733 E63.99327
G1 X77.624 Y94.773 E64.04129
G1 X77.626 Y35.61 E66.99295
G0 F3600 X78.026 Y35.61
G1 F1800 X78.066 Y34.907 E67.02807
G1 X78.185 Y34.213 E67.0632
G1 X78.384 Y33.518 E67.09927
G1 X78.631 Y32.859 E67.13438
G1 X78.952 Y32.232 E67.16952
G1 X79.341 Y31.645 E67.20466
G1 X79.795 Y31.107 E67.23978
G1 X80.267 Y30.65 E67.27255
G1 X80.808 Y30.2 E67.30766
G1 X81.398 Y29.815 E67.34281
G1 X82.027 Y29.499 E67.37793
G1 X82.938 Y29.186 E67.42599
G1 X83.865 Y28.988 E67.47328
G1 X84.726 Y28.928 E67.51634
G1 X169.275 Y28.928 E71.7345
G1 X169.978 Y28.968 E71.76963
G1 X170.672 Y29.087 E71.80476
G1 X171.306 Y29.264 E71.8376
G1 X171.969 Y29.502 E71.87275
G1 X172.6 Y29.814 E71.90787
G1 X173.191 Y30.195 E71.94295
G1 X173.736 Y30.642 E71.97811
G1 X174.254 Y31.171 E72.01505
G1 X174.704 Y31.712 E72.05016
G1 X175.089 Y32.302 E72.08531
G1 X175.405 Y32.931 E72.12042
G1 X175.713 Y33.824 E72.16755
G1 X175.913 Y34.747 E72.21467
G1 X175.976 Y35.627 E72.25868
G1 X175.974 Y94.79 E75.21034
G1 X175.934 Y95.493 E75.24547
G1 X175.815 Y96.187 E75.2806
G1 X175.616 Y96.882 E75.31666
G1 X175.369 Y97.541 E75.35178
G1 X175.048 Y98.168 E75.38692
G1 X174.659 Y98.755 E75.42205
G1 X174.205 Y99.293 E75.45717
G1 X173.733 Y99.75 E75.48995
G1 X173.192 Y100.2 E75.52506
G1 X172.602 Y100.585 E75.5602
G1 X171.973 Y100.901 E75.59532
G1 X171.062 Y101.214 E75.64338
G1 X170.135 Y101.412 E75.69067
G1 X169.274 Y101.472 E75.73373
G1 X84.706 Y101.47 E79.95284
G1 X84.003 Y101.43 E79.98797
G1 X83.309 Y101.311 E80.0231
G1 X82.614 Y101.112 E80.05917
G1 X81.955 Y100.865 E80.09428
G1 X81.328 Y100.544 E80.12942
G1 X80.741 Y100.155 E80.16456
G1 X80.203 Y99.701 E80.19968
G1 X79.746 Y99.229 E80.23245
G1 X79.296 Y98.688 E80.26756
G1 X78.911 Y98.098 E80.30271
G1 X78.595 Y97.469 E80.33783
G1 X78.287 Y96.576 E80.38496
G1 X78.087 Y95.653 E80.43207
G1 X78.024 Y94.773 E80.47609
G1 X78.026 Y35.61 E83.42774
G0 F3600 X78.426 Y35.61
G1 F1800 X78.466 Y34.93 E83.46173
G1 X78.585 Y34.26 E83.49568
G1 X78.766 Y33.637 E83.52804
G1 X79.006 Y33 E83.562
G1 X79.32 Y32.395 E83.59601
G1 X79.702 Y31.832 E83.62995
G1 X80.352 Y31.117 E83.67816
G1 X81.064 Y30.509 E83.72487
G1 X81.636 Y30.14 E83.75883
G1 X82.247 Y29.84 E83.79279
G1 X83.039 Y29.574 E83.83447
G1 X83.943 Y29.381 E83.88059
G1 X84.726 Y29.328 E83.91975
G1 X169.275 Y29.328 E88.13791
G1 X169.955 Y29.368 E88.1719
G1 X170.926 Y29.568 E88.22136
G1 X171.832 Y29.879 E88.26915
G1 X172.441 Y30.184 E88.30313
G1 X173.01 Y30.559 E88.33712
G1 X173.531 Y30.997 E88.37108
G1 X173.961 Y31.443 E88.40199
G1 X174.395 Y31.968 E88.43597
G1 X174.764 Y32.54 E88.46993
G1 X175.064 Y33.151 E88.50389
G1 X175.326 Y33.925 E88.54466
G1 X175.52 Y34.826 E88.59064
G1 X175.576 Y35.627 E88.6307
G1 X175.574 Y94.79 E91.58236
G1 X175.534 Y95.47 E91.61634
G1 X175.415 Y96.14 E91.65029
G1 X175.234 Y96.763 E91.68266
G1 X174.994 Y97.4 E91.71662
G1 X174.68 Y98.005 E91.75062
G1 X174.298 Y98.568 E91.78457
G1 X173.648 Y99.283 E91.83277
G1 X172.936 Y99.891 E91.87949
G1 X172.364 Y100.26 E91.91345
G1 X171.753 Y100.56 E91.9474
G1 X170.961 Y100.826 E91.98909
G1 X170.057 Y101.019 E92.0352
G1 X169.274 Y101.072 E92.07436
G1 X84.706 Y101.07 E96.29347
G1 X84.026 Y101.03 E96.32746
G1 X83.356 Y100.911 E96.36141
G1 X82.733 Y100.73 E96.39377
G1 X82.096 Y100.49 E96.42773
G1 X81.491 Y100.176 E96.46174
G1 X80.928 Y99.794 E96.49568
G1 X80.213 Y99.144 E96.54389
G1 X79.605 Y98.432 E96.5906
G1 X79.236 Y97.86 E96.62456
G1 X78.936 Y97.249 E96.65852
G1 X78.674 Y96.475 E96.69929
G1 X78.48 Y95.574 E96.74527
G1 X78.424 Y94.773 E96.78533
G1 X78.426 Y35.61 E99.73698
G0 F3600 X78.826 Y35.61
G1 F1800 X78.866 Y34.954 E99.76977
G1 X79.071 Y34.003 E99.81831
G1 X79.381 Y33.142 E99.86396
G1 X79.687 Y32.56 E99.89677
G1 X80.062 Y32.021 E99.92953
G1 X80.625 Y31.41 E99.97098
G1 X81.319 Y30.818 E100.01649
G1 X81.873 Y30.465 E100.04926
G1 X82.466 Y30.183 E100.08202
G1 X83.139 Y29.961 E100.11738
G1 X84.02 Y29.774 E100.16231
G1 X84.726 Y29.728 E100.19761
G1 X169.275 Y29.728 E104.41577
G1 X169.931 Y29.768 E104.44856
G1 X170.812 Y29.951 E104.49345
G1 X171.696 Y30.255 E104.54009
G1 X172.281 Y30.554 E104.57287
G1 X172.826 Y30.921 E104.60565
G1 X173.494 Y31.529 E104.65071
G1 X174.086 Y32.223 E104.69622
G1 X174.439 Y32.777 E104.72899
G1 X174.721 Y33.37 E104.76175
G1 X174.939 Y34.026 E104.79624
G1 X175.127 Y34.904 E104.84104
G1 X175.176 Y35.627 E104.87719
G1 X175.174 Y94.79 E107.82885
G1 X175.134 Y95.446 E107.86163
G1 X174.929 Y96.397 E107.91017
G1 X174.619 Y97.258 E107.95583
G1 X174.313 Y97.84 E107.98863
G1 X173.938 Y98.379 E108.02139
G1 X173.375 Y98.99 E108.06284
G1 X172.681 Y99.582 E108.10835
G1 X172.127 Y99.935 E108.14112
G1 X171.534 Y100.217 E108.17388
G1 X170.861 Y100.439 E108.20924
G1 X169.98 Y100.626 E108.25417
G1 X169.274 Y100.672 E108.28947
G1 X84.706 Y100.67 E112.50858
G1 X84.05 Y100.63 E112.54137
G1 X83.099 Y100.425 E112.58991
G1 X82.238 Y100.115 E112.63556
G1 X81.656 Y99.809 E112.66837
G1 X81.117 Y99.434 E112.70112
G1 X80.506 Y98.871 E112.74258
G1 X79.914 Y98.177 E112.78808
G1 X79.561 Y97.623 E112.82086
G1 X79.279 Y97.03 E112.85362
G1 X79.061 Y96.374 E112.88811
G1 X78.873 Y95.496 E112.9329
G1 X78.824 Y94.773 E112.96906
G1 X78.826 Y35.61 E115.92071
G0 F3600 X79.226 Y35.61
G1 F1800 X79.266 Y34.979 E115.95225
G1 X79.453 Y34.122 E115.99602
G1 X79.755 Y33.285 E116.04041
G1 X80.054 Y32.727 E116.07199
G1 X80.421 Y32.212 E116.10354
G1 X80.897 Y31.703 E116.13831
G1 X81.573 Y31.128 E116.18259
G1 X82.109 Y30.792 E116.21415
G1 X82.683 Y30.527 E116.24569
G1 X83.239 Y30.348 E116.27483
G1 X84.096 Y30.168 E116.31852
G1 X84.726 Y30.128 E116.35001
G1 X169.275 Y30.128 E120.56818
G1 X169.906 Y30.168 E120.59972
G1 X170.699 Y30.335 E120.64015
G1 X171.558 Y30.632 E120.6855
G1 X172.119 Y30.923 E120.71703
G1 X172.639 Y31.282 E120.74855
G1 X173.201 Y31.801 E120.78672
G1 X173.776 Y32.477 E120.83099
G1 X174.112 Y33.013 E120.86256
G1 X174.377 Y33.587 E120.8941
G1 X174.552 Y34.128 E120.92246
G1 X174.734 Y34.981 E120.96598
G1 X174.776 Y35.627 E120.99828
G1 X174.774 Y94.79 E123.94993
G1 X174.734 Y95.421 E123.98147
G1 X174.547 Y96.278 E124.02524
G1 X174.245 Y97.115 E124.06963
G1 X173.946 Y97.673 E124.10121
G1 X173.579 Y98.188 E124.13276
G1 X173.103 Y98.697 E124.16753
G1 X172.427 Y99.272 E124.21181
G1 X171.891 Y99.608 E124.24337
G1 X171.317 Y99.873 E124.27491
G1 X170.761 Y100.052 E124.30405
G1 X169.904 Y100.232 E124.34774
G1 X169.274 Y100.272 E124.37923
G1 X84.706 Y100.27 E128.59835
G1 X84.075 Y100.23 E128.62989
G1 X83.218 Y100.043 E128.67365
G1 X82.381 Y99.741 E128.71805
G1 X81.823 Y99.442 E128.74963
G1 X81.308 Y99.075 E128.78118
G1 X80.799 Y98.599 E128.81595
G1 X80.224 Y97.923 E128.86022
G1 X79.888 Y97.387 E128.89178
G1 X79.623 Y96.813 E128.92333
G1 X79.448 Y96.272 E128.95169
G1 X79.266 Y95.419 E128.99521
G1 X79.224 Y94.773 E129.02751
G1 X79.226 Y35.61 E131.97916
G0 F3600 X79.626 Y35.61
G1 F1800 X79.666 Y35.005 E132.00941
G1 X79.834 Y34.241 E132.04844
G1 X80.13 Y33.428 E132.0916
G1 X80.42 Y32.896 E132.12183
G1 X80.778 Y32.407 E132.15207
G1 X81.169 Y31.995 E132.1804
G1 X81.827 Y31.438 E132.22341
G1 X82.343 Y31.121 E132.25363
G1 X82.897 Y30.874 E132.28389
G1 X83.575 Y30.674 E132.31915
G1 X84.171 Y30.562 E132.34941
G1 X84.726 Y30.528 E132.37715
G1 X169.275 Y30.528 E136.59532
G1 X169.88 Y30.568 E136.62557
G1 X170.585 Y30.718 E136.66153
G1 X171.419 Y31.008 E136.70558
G1 X171.955 Y31.291 E136.73582
G1 X172.449 Y31.643 E136.76608
G1 X172.909 Y32.073 E136.7975
G1 X173.466 Y32.731 E136.84051
G1 X173.783 Y33.247 E136.87072
G1 X174.03 Y33.801 E136.90098
G1 X174.226 Y34.462 E136.93538
G1 X174.341 Y35.057 E136.96561
G1 X174.376 Y35.627 E136.9941
G1 X174.374 Y94.79 E139.94576
G1 X174.334 Y95.395 E139.97601
G1 X174.166 Y96.159 E140.01503
